tools/download-figma-icons/icons/solid/new-customer.svg

<svg width="24" height="24" viewBox="0 0 24 24" fill="none" xmlns="http://www.w3.org/2000/svg">
<path fill-rule="evenodd" clip-rule="evenodd" d="M8.99932 18C8.99932 18.2775 9.01433 18.5483 9.04432 18.8175C9.07433 19.0725 9.11182 19.3275 9.16432 19.5675C9.21683 19.8307 9.28433 20.0775 9.36757 20.325C4.93433 20.28 2.85682 19.5525 2.39932 19.3725C1.83682 19.2383 1.44607 18.7275 1.50607 18.1575L1.84357 14.6925C2.09107 12.135 3.94432 10.0808 6.44182 9.3225C5.25682 8.36325 4.49857 6.89325 4.49857 5.25C4.49857 2.355 6.85432 0 9.74932 0C12.6451 0 14.9993 2.355 14.9993 5.25C14.9993 6.89325 14.2426 8.36325 13.0576 9.3225C13.9418 9.585 14.7451 10.0208 15.4276 10.5833C15.0901 10.6275 14.7601 10.695 14.4368 10.7925C14.1226 10.875 13.8143 10.9882 13.5226 11.1225C10.8676 12.2708 8.99932 14.9175 8.99932 18ZM17.8946 18.7202H18.7804C19.1771 18.7202 19.5004 18.3977 19.5004 18.0002C19.5004 17.6027 19.1771 17.2802 18.7804 17.2802H17.9104H17.2204V15.7202C17.2204 15.4952 17.1146 15.2927 16.9504 15.1577C16.8296 15.0602 16.6721 15.0002 16.4996 15.0002C16.3879 15.0002 16.2746 15.0302 16.1846 15.0752C15.9454 15.1877 15.7796 15.4352 15.7796 15.7202V17.2802H14.2196C13.8221 17.2802 13.4996 17.6027 13.4996 18.0002C13.4996 18.2402 13.6196 18.4577 13.7996 18.5852C13.9204 18.6677 14.0621 18.7202 14.2196 18.7202H15.7796V18.9902V19.7627V20.2802C15.7796 20.6777 16.1029 21.0002 16.4996 21.0002C16.8971 21.0002 17.2204 20.6777 17.2204 20.2802V19.3277V18.7202H17.8946ZM16.4996 12.0002C16.5679 12.0002 16.6421 12.0002 16.7096 12.0077C19.9204 12.1127 22.5004 14.7602 22.5004 18.0002C22.5004 21.3077 19.8079 24.0002 16.4996 24.0002C14.0096 24.0002 11.8721 22.4777 10.9646 20.3102C10.8671 20.0702 10.7771 19.8227 10.7096 19.5677C10.6414 19.3277 10.5896 19.0802 10.5521 18.8177C10.5221 18.5552 10.4996 18.2777 10.4996 18.0002C10.4996 15.2252 12.3896 12.8852 14.9546 12.2027C15.2254 12.1277 15.5104 12.0752 15.7954 12.0452C16.0271 12.0152 16.2604 12.0002 16.4996 12.0002Z" fill="black"/>
</svg>

<svg xmlns="http://www.w3.org/2000/svg" width="24" height="24" fill="none" viewBox="0 0 24 24"><path fill="currentColor" fill-rule="evenodd" d="M9 18q0 .415.044.817c.03.256.068.51.12.75.053.264.12.51.204.758-4.434-.045-6.511-.773-6.969-.953-.562-.134-.953-.645-.893-1.215l.338-3.464c.247-2.558 2.1-4.612 4.598-5.37A5.23 5.23 0 0 1 4.499 5.25 5.256 5.256 0 0 1 9.749 0 5.255 5.255 0 0 1 15 5.25a5.23 5.23 0 0 1-1.941 4.073 6.75 6.75 0 0 1 2.37 1.26 6 6 0 0 0-.991.21 5.6 5.6 0 0 0-.914.33A7.5 7.5 0 0 0 8.999 18m8.895.72h.885a.72.72 0 0 0 0-1.44h-1.56v-1.56a.717.717 0 0 0-1.036-.645.71.71 0 0 0-.404.645v1.56h-1.56a.72.72 0 0 0 0 1.44h1.56v1.56a.72.72 0 0 0 1.44 0v-1.56zM16.5 12c.068 0 .142 0 .21.008A6 6 0 0 1 22.5 18c0 3.308-2.692 6-6 6a6 6 0 0 1-5.79-4.432 6 6 0 0 1-.158-.75A7 7 0 0 1 10.5 18a6.005 6.005 0 0 1 4.455-5.797 5 5 0 0 1 .84-.158Q16.141 12 16.5 12" clip-rule="evenodd"/></svg>
